X: 4
M:6/8
L:1/8
K:G
(3d/2e/2f/2|gdB gdB|d>ed d2 (3d/2e/2f/2|gdB gfg|faa a2 (3d/2e/2f/2|
gdB gdB|ded d'2 c'|bab ged|egg g2||
K:D
f/2e/2|d2 B B>cB|A2 A A2 A|B2 B B>cB|g3 f2 e|
d2 B B>cB|A2 A A2 c|B>cd ecA|d3-d z||
bab a2 f|g>ag f2 e|d2 B BcB|g3 f2 e||
a|d'd'a b2 a|d'2 a b2 a|f2 d g2 e|f2 d g2 e|
f>ga B>cd|e>fd c>BA|B>cd ecA|d3-d z||
a/2g/2|f2 f fga|b g2 z gf|e2 e efg|a f2 z2 a|
g2 d B2 g|e2 cA2 a|f2 d {e}dcd|f2 e z2||
f>ff f2 d|g>gg gfg|a>ba agf|e3 d2

